X:50
T:Sharon MacLean
R:reel
C:Paul S. Cranford
O:Cape Breton Island
S:http://www.cranfordpub.com
D:currently unrecorded
B:currently unpublished in book form
Z:psc
H:                                                        copyrights Cranford Publications, SOCAN
L:1/8
Q:333
M:C|
K:D
A2 FA dAfd|BGge cAag|fdcd BAdF|[1GBAF GEdB:|[2GBAG FDD||
||B,|A,DFA BGdB|cAeg fdag|fdcA BGBA|GFED EB,DB,|
A,DFA BGdB|cAeg fdag|fdcA BGdB|cAec d2 dB||
